X:1
T:Birmingham Lads
M:12/8
L:1/8
K:D
 A| dAA BGG A F2- F z A| dAA BGG A F2- F z F| FEF DDA| A^GA EED| CEA ^GAB cAA A3|\
 AAA B3 AAA Bcd| AFF GEE FDD D2||
